X: 1088
T: Lady of Pleasure.
%R: jig
B: Henry Playford "Apollo's Banquet", London 1687 (5th Edition)
F: https://archive.org/details/apollosbanquetco01rugg
Z: 2017 John Chambers <jc:trillian.mit.edu>
N: Bars 9,10 are missing a 1/4 note; not fixed. (Nothing similar in other bars.)
M: 6/4
L: 1/8
K: G
% - - - - - - - - - -
ef |\
g4G2 B4c2 | d2D4 F4G2 |\
A2B2c2 B2c2d2 | A6 G4 :: G2 |\
B2d4 g4f2 | e2f2g2 a4d2 |
d2e2f2 g3agf | e6 d4(ef) |\
(gf)(ed) B4(AB) | (cB)(AG) F4G2 |\
A2B2c2 B2c2d2 | A6 HG4 |]
% - - - - - - - - - -

%%sep 1 1 500
%%sep 1 1 500

